img/subtract-12.svg

<svg fill="none" height="24" viewBox="0 0 33 24" width="33" xmlns="http://www.w3.org/2000/svg"><path clip-rule="evenodd" d="m28.9633 1.50713c1.3785.368 2.4539 1.44543 2.8266 2.82135.975 3.92535.9115 11.34672.0205 15.33342-.3687 1.3759-1.4481 2.4493-2.8266 2.8214-3.8916.9608-21.32225.8423-24.98862 0-1.37847-.368-2.4538-1.4455-2.82658-2.8214-.919668-3.7414-.856172-11.6534-.02049-15.31298.36869-1.37592 1.44812-2.44926 2.82659-2.82135 5.20255-1.083562 23.137-.733959 24.9886-.02044zm-15.5668 5.70446 8.3568 4.78401-8.3568 4.784z" fill="#fff" fill-rule="evenodd"/></svg>

<svg width="33" height="24" viewBox="0 0 33 24" fill="none" xmlns="http://www.w3.org/2000/svg">
<path fill-rule="evenodd" clip-rule="evenodd" d="M28.9633 1.50713C30.3418 1.87513 31.4172 2.95256 31.7899 4.32848C32.7649 8.25383 32.7014 15.6752 31.8104 19.6619C31.4417 21.0378 30.3623 22.1112 28.9838 22.4833C25.0922 23.4441 7.66155 23.3256 3.99518 22.4833C2.61671 22.1153 1.54138 21.0378 1.1686 19.6619C0.248932 15.9205 0.312428 8.0085 1.14811 4.34892C1.5168 2.973 2.59623 1.89966 3.9747 1.52757C9.17725 0.444008 27.1117 0.793611 28.9633 1.50713ZM13.3965 7.21159L21.7533 11.9956L13.3965 16.7796V7.21159Z" fill="white"/>
</svg>
